X:56
T: A Nacht in Gan Eydn (A Night in the Garden of Eden)
O:klezmer
B: Sapoznik "The Compleat Klezmer" p.38
D:
M: 2/4
L: 1/8
K:Em
|: B,EF \
| "Em"G2 FE | G2 FE | FG E2 | "D7"zDGA | "G"B2 AG | B2 AG | AB G2 | "(D7)"zDGB |
| "G"d2 "D7"c2 | "G"B2 AG | "B7"GA GF | "Em"E3 "D7"D | "G"GA2G | "B7"(3BAG (3GFE | "Em"E4- | E :|
|: B \
| "Em"Be ee | eB g/f/e | "E7"^de cB | "Am"A3 A | ^GA Bc | "B7"^de dc | "Em"B4- | B2 "D7"D2 |
| "G"DG GB | dd "E7"cB | "Am"eA AA | AB/A/ "B7"GF | "Em"E2 BG |1 "B7"AA GA | "Em"B4 | ~e3 :|2 "Am"AA "B7"GF | "Em"E4- | E ||
|: BcB \
| "Em"~e4 | "B7"zBGF | "Em"E4 | "B7"ZBcB | "Em"g4- | (3gfe "B7"(3^def | "Em"e4 | zd^cd |
| "E"e_f ed | "G"^cd =cB | ^cd =cB | "Am"A3G | "Em"GA2G | "B7"(3BAG (3GFE | "Em"E4- | E :|





